X: 301
M: 2/4
L: 1/16
K: G
d2d2 cBcd | B2Bd c2A2 | B3GA3F | HG4 :|\
|: "4.F."D2DD |\
E2E2F2F2 | G2GG A2A2 | B3B ^c2c2 | Hd3dd2B2 |

